X:118
T:Merry Girls of Maidstone
M:6/8
L:1/8
B:Thompson's Compleat Collection of 200 Favourite Country Dances, vol. 1 (London, 1757)
Z:Transcribed and edited by Flynn Titford-Mock, 2007
Z:abc's:AK/Fiddler's Companion
K:G
B2B BdB|A2A "tr"A3|B2B BdB|G2G "tr"G3|B2B BdB|A2A A2g|(f/a/b)c BAG|DEF G3:|
|:B2B B^c^d|efg "tr"f3|geb gfe|B^c^d e2g|dgd BdB|cAc B2e|(d/c/B)g BcA|(G3 G3):|

